rospo-icon-theme-classic-common/24x24/apps/com.github.artemanufrij.playmyvideos.svg

<svg height="24" width="24" xmlns="http://www.w3.org/2000/svg"><rect height="20" opacity=".2" rx="1" transform="matrix(0 -1 -1 0 0 0)" width="16" x="-20.5" y="-22"/><rect fill="#4f4f4f" height="20" rx="1" transform="matrix(0 -1 -1 0 0 0)" width="16" x="-20" y="-22"/><rect height="2" opacity=".4" rx=".45" ry=".436" width="2" x="3" y="7"/><rect height="2" opacity=".4" rx=".45" ry=".436" width="2" x="3" y="16"/><rect height="2" opacity=".4" rx=".45" ry=".436" width="2" x="3" y="13"/><rect height="2" opacity=".4" rx=".45" ry=".436" width="2" x="3" y="10"/><rect height="2" opacity=".4" rx=".45" ry=".436" width="2" x="19" y="7"/><rect height="2" opacity=".4" rx=".45" ry=".436" width="2" x="19" y="16"/><rect height="2" opacity=".4" rx=".45" ry=".436" width="2" x="19" y="13"/><rect height="2" opacity=".4" rx=".45" ry=".436" width="2" x="19" y="10"/><path d="m9.3015875 8.5000679c-.2723085-.006-.319148.3879585-.29664.6723574.002 2.6617077-.0035 5.3237767.0025 7.9853667.023945.318239.3278095.44539.5005715.248033 1.846397-1.362715 4.532106-2.716069 6.375748-4.084663.201172-.188376.124124-.627058-.100417-.718258-1.846448-1.357313-4.525294-2.722068-6.373244-4.0747623-.034515-.0184781-.0716125-.0280181-.108729-.02808z" opacity=".2"/><path d="m9.3015875 8.0000694c-.2723085-.006-.319148.3879585-.29664.6723574.002 2.6617082-.0035 5.3237772.0025 7.9853672.023945.318239.3278095.44539.5005715.248033 1.846397-1.362715 4.532106-2.716069 6.375748-4.084663.201172-.188376.124124-.627058-.100417-.718258-1.846448-1.357314-4.525294-2.7220685-6.373244-4.0747628-.034515-.0184781-.0716125-.0280181-.108729-.02808z" fill="#fff"/><path d="m3 4c-.554 0-1 .446-1 1v .5c0-.554.446-1 1-1h18c .554 0 1 .446 1 1v-.5c0-.554-.446-1-1-1z" fill="#fff" opacity=".1"/></svg>

<svg xmlns="http://www.w3.org/2000/svg" width="24" height="24" version="1">
 <rect style="opacity:0.2" width="16" height="20" x="-20.5" y="-22" rx="1" ry="1" transform="matrix(0,-1,-1,0,0,0)"/>
 <rect width="16" height="20" x="-20" y="-22" rx="1" ry="1" transform="matrix(0,-1,-1,0,0,0)" style="fill:#4f4f4f"/>
 <rect style="opacity:0.4" width="2" height="2" x="3" y="7" rx=".45" ry=".436"/>
 <rect width="2" height="2" x="3" y="16" rx=".45" ry=".436" style="opacity:0.4"/>
 <rect style="opacity:0.4" width="2" height="2" x="3" y="13" rx=".45" ry=".436"/>
 <rect width="2" height="2" x="3" y="10" rx=".45" ry=".436" style="opacity:0.4"/>
 <rect width="2" height="2" x="19" y="7" rx=".45" ry=".436" style="opacity:0.4"/>
 <rect style="opacity:0.4" width="2" height="2" x="19" y="16" rx=".45" ry=".436"/>
 <rect width="2" height="2" x="19" y="13" rx=".45" ry=".436" style="opacity:0.4"/>
 <rect style="opacity:0.4" width="2" height="2" x="19" y="10" rx=".45" ry=".436"/>
 <path style="opacity:0.2" d="m 9.3015875,8.5000679 c -0.2723085,-0.006 -0.319148,0.3879585 -0.29664,0.6723574 0.002,2.6617077 -0.0035,5.3237767 0.0025,7.9853667 0.023945,0.318239 0.3278095,0.44539 0.5005715,0.248033 1.846397,-1.362715 4.532106,-2.716069 6.375748,-4.084663 0.201172,-0.188376 0.124124,-0.627058 -0.100417,-0.718258 C 13.936902,11.245591 11.258056,9.880836 9.410106,8.5281417 9.375591,8.5096636 9.3384935,8.5001236 9.301377,8.5000617 Z"/>
 <path d="m 9.3015875,8.0000694 c -0.2723085,-0.006 -0.319148,0.3879585 -0.29664,0.6723574 0.002,2.6617082 -0.0035,5.3237772 0.0025,7.9853672 0.023945,0.318239 0.3278095,0.44539 0.5005715,0.248033 1.846397,-1.362715 4.532106,-2.716069 6.375748,-4.084663 0.201172,-0.188376 0.124124,-0.627058 -0.100417,-0.718258 C 13.936902,10.745592 11.258056,9.3808375 9.410106,8.0281432 9.375591,8.0096651 9.3384935,8.0001251 9.301377,8.0000632 Z" style="fill:#ffffff"/>
 <path style="fill:#ffffff;opacity:0.1" d="M 3 4 C 2.446 4 2 4.446 2 5 L 2 5.5 C 2 4.946 2.446 4.5 3 4.5 L 21 4.5 C 21.554 4.5 22 4.946 22 5.5 L 22 5 C 22 4.446 21.554 4 21 4 L 3 4 z"/>
</svg>
